favicon.svg

<?xml version="1.0" encoding="UTF-8" standalone="no"?>
<svg
   viewBox="0 0 100 100"
   preserveAspectRatio="xMidYMid meet"
   version="1.1"
   id="svg1"
   sodipodi:docname="favicon.svg"
   inkscape:export-filename="favicon-512x512.png"
   inkscape:export-xdpi="491.51999"
   inkscape:export-ydpi="491.51999"
   inkscape:version="1.4.2 (f4327f4, 2025-05-13)"
   xmlns:inkscape="http://www.inkscape.org/namespaces/inkscape"
   xmlns:sodipodi="http://sodipodi.sourceforge.net/DTD/sodipodi-0.dtd"
   xmlns="http://www.w3.org/2000/svg"
   xmlns:svg="http://www.w3.org/2000/svg">
  <defs
     id="defs1" />
  <sodipodi:namedview
     id="namedview1"
     pagecolor="#505050"
     bordercolor="#ffffff"
     borderopacity="1"
     inkscape:showpageshadow="0"
     inkscape:pageopacity="0"
     inkscape:pagecheckerboard="1"
     inkscape:deskcolor="#505050"
     inkscape:lockguides="false"
     inkscape:export-bgcolor="#ffffffec"
     inkscape:zoom="1.4265879"
     inkscape:cx="-84.116792"
     inkscape:cy="162.97628"
     inkscape:window-width="1920"
     inkscape:window-height="1009"
     inkscape:window-x="-8"
     inkscape:window-y="-8"
     inkscape:window-maximized="1"
     inkscape:current-layer="svg1" />
  <g
     transform="matrix(0.01354135,0,0,-0.01354135,-42.315864,154.64558)"
     fill="none"
     stroke="none"
     id="jon-david-painting-svg-logo"
     inkscape:highlight-color="#aaaaaa">
    <path
       d="m 6772.34,10699.2 c -4.55,-2 -20.02,-6 -32.75,-9 -26.39,-6 -65.51,-35 -822.42,-598 -80.06,-60 -221.07,-164.97 -313.87,-233.97 -92.79,-69 -289.3,-215 -436.68,-325 -147.38,-110 -350.25,-261 -450.33,-335 -100.07,-74 -273.83,-204 -386.64,-287 -214.7,-160 -501.28,-374 -755.1,-562 -262.01,-195 -276.56,-206 -302.94,-233 -86.43,-89 -88.25,-234 -3.64,-329 49.12,-56 99.16,-77 170.12,-71 53.68,4 57.32,6 361.17,232 169.22,125 374.82,278 457.61,340 272.01,203 710.52,529 1162.66,865 128.28,95 297.49,221 374.82,279 147.38,110 322.96,240 614.09,457 95.52,70 191.95,142.97 214.7,160.97 100.07,80 178.31,102 249.27,70 29.11,-14 179.22,-121.97 473.07,-340.97 75.51,-56 201.97,-151 282.02,-210 80.06,-60 194.69,-145 254.73,-190 60.05,-45 236.54,-175 391.2,-290 155.57,-115 337.52,-250 404.84,-300 67.32,-50 240.17,-179 384.82,-286 143.75,-107 333.93,-248 423.08,-314 486.72,-362 609.53,-452 632.33,-463 31.8,-15 98.2,-15 144.6,0 50,16 110.1,83 128.3,143 21.8,70 19.1,113 -11.8,182 -30.1,66 -9.1,49 -650.52,525 -100.07,74 -321.14,238 -491.31,365 -170.13,126 -399.38,296 -509.46,378 -110.08,82 -267.47,199 -350.26,260 -82.79,61 -231.99,172 -332.06,247 -100.07,74 -251.09,185.97 -336.61,249.97 -84.61,63 -238.35,177 -341.16,253 -102.8,76 -250.18,186 -327.51,244 -149.2,112 -218.34,144 -268.37,126 z m 139.19,-2150.97 c -4.55,-4 -7.28,-128 -7.28,-276 v -268 h 644.11 c 368.45,0 676.85,-4 722.34,-10 84.61,-11 181.04,-44 262.92,-91 106.44,-62 201.05,-180 254.73,-319 54.58,-141 55.49,-156 60.04,-828 4.55,-627 -1.82,-820 -29.11,-937 -53.68,-227 -200.14,-397 -400.29,-464 -77.33,-25 -158.3,-41 -211.06,-41 h -39.12 v 140 c 0,154 -1.82,160 -63.68,160 -50.04,0 -93.71,-29 -159.21,-105 -85.52,-100 -110.99,-108 -241.09,-76 -135.55,33 -179.22,36 -241.99,16 -29.11,-9 -57.32,-20 -62.77,-25 -21.84,-18 -102.81,-40 -149.2,-40 -43.67,0 -60.05,6 -118.27,45 -74.6,49 -146.47,71 -193.78,57 l -30.02,-8 -5.46,-145 c -4.55,-110 -10.92,-160 -26.38,-214 -30.93,-105 -83.7,-197 -161.03,-281 l -69.14,-74 h 786.03 c 836.97,0 918.85,4 1075.33,50 430.31,126 722.34,469 806.95,949 32.75,187 38.21,330 33.66,986 -2.73,590 -4.55,637 -22.75,747 -95.52,573 -411.2,921 -939.77,1034 -65.5,14 -178.31,17 -772.38,21 -383.01,3 -698.69,1 -702.33,-3 z m -582.24,-1626 -2.73,-1623 H 4943.73 l -2.73,323 -1.82,322 h -491.26 v -363 c 0,-401 2.73,-429 57.31,-541 38.21,-79 112.81,-167 180.13,-211 33.66,-23 85.52,-45 141.92,-60 l 89.16,-25 h 1437.41 l 89.16,25 c 56.4,15 108.26,37 141.92,60 102.8,68 194.68,204 229.26,340 10.91,42 12.73,312 12.73,1710 v 1660 l -247.45,3 -248.36,2 z m 1129.91,968 c -22.74,-7 -51.86,-18 -65.5,-24 -42.76,-19 -104.62,-90 -126.46,-145 -35.48,-88 -28.2,-165 51.86,-607 37.3,-205 29.11,-306 -32.75,-405 -28.21,-45 -78.24,-89 -331.15,-290 -67.32,-53 -87.34,-75 -85.52,-90 2.73,-20 9.1,-20 662.3,-20 h 659.57 l 2.73,21 c 2.73,18 -30.93,48 -186.5,172 -103.71,82 -198.33,163 -210.15,179 -40.94,55 -66.41,123 -71.87,191 -6.37,85 -4.55,92 85.51,617 7.28,44 11.83,105 10.01,136 -8.19,128 -101.89,240 -223.8,268 -60.04,14 -86.42,13 -138.28,-3 z m 108.26,-231 c 35.48,-20 59.13,-77 52.77,-132 -4.55,-47 -23.66,-77 -62.78,-99 -21.83,-13 -29.11,-13 -51.85,1 -41.85,23 -55.5,52 -55.5,119 0,54 2.73,61 32.75,92 36.39,38 47.31,41 84.61,19 z m -649.56,-1416 c -3.64,-6 -2.73,-15 1.82,-20 4.55,-5 259.28,-8 626.82,-7 542.21,3 617.72,5 617.72,18 0,13 -76.42,15 -620.45,18 -441.23,1 -622.27,-1 -625.91,-9 z m -1.82,-95 c -2.73,-9 0,-20 7.27,-25 20.02,-14 1220.89,-12 1233.63,2 5.46,6 8.19,18 5.46,25 -3.64,12 -106.44,14 -622.27,14 -558.59,0 -618.63,-2 -624.09,-16 z m 254.73,-71 -257.46,-3 v -152 c 0,-83 1.82,-149 4.55,-146 2.73,3 22.74,61 44.57,129 l 40.03,124 536.76,3 536.75,2 27.3,-82 c 14.55,-46 31.84,-100 37.29,-120 22.75,-75 29.12,-51 26.39,99 l -2.73,148 h -368.45 c -202.88,0 -483.99,-1 -625,-2 z"
       style="vector-effect:non-scaling-stroke;fill:#fad702;stroke:none;stroke-width:0px"
       id="path1" />
  </g>
</svg>

<?xml version="1.0" encoding="utf-8"?>
<svg xmlns="http://www.w3.org/2000/svg" viewBox="0 0 100 100" preserveAspectRatio="xMidYMid meet"><g transform="matrix(0.05992000550031662, 0, 0, -0.05992000550031662, -359.4857177734375, 652.47998046875)" fill="none" stroke="none" id="jon-david-painting-svg-logo"><path d="M 6772.34 10699.2 C 6767.79 10697.2 6752.32 10693.2 6739.59 10690.2 C 6713.2 10684.2 6674.08 10655.2 5917.17 10092.2 C 5837.11 10032.2 5696.1 9927.23 5603.3 9858.23 C 5510.51 9789.23 5314 9643.23 5166.62 9533.23 C 5019.24 9423.23 4816.37 9272.23 4716.29 9198.23 C 4616.22 9124.23 4442.46 8994.23 4329.65 8911.23 C 4114.95 8751.23 3828.37 8537.23 3574.55 8349.23 C 3312.54 8154.23 3297.99 8143.23 3271.61 8116.23 C 3185.18 8027.23 3183.36 7882.23 3267.97 7787.23 C 3317.09 7731.23 3367.13 7710.23 3438.09 7716.23 C 3491.77 7720.23 3495.41 7722.23 3799.26 7948.23 C 3968.48 8073.23 4174.08 8226.23 4256.87 8288.23 C 4528.88 8491.23 4967.39 8817.23 5419.53 9153.23 C 5547.81 9248.23 5717.02 9374.23 5794.35 9432.23 C 5941.73 9542.23 6117.31 9672.23 6408.44 9889.23 C 6503.96 9959.23 6600.39 10032.2 6623.14 10050.2 C 6723.21 10130.2 6801.45 10152.2 6872.41 10120.2 C 6901.52 10106.2 7051.63 9998.23 7345.48 9779.23 C 7420.99 9723.23 7547.45 9628.23 7627.5 9569.23 C 7707.56 9509.23 7822.19 9424.23 7882.23 9379.23 C 7942.28 9334.23 8118.77 9204.23 8273.43 9089.23 C 8429 8974.23 8610.95 8839.23 8678.27 8789.23 C 8745.59 8739.23 8918.44 8610.23 9063.09 8503.23 C 9206.84 8396.23 9397.02 8255.23 9486.17 8189.23 C 9972.89 7827.23 10095.7 7737.23 10118.5 7726.23 C 10150.3 7711.23 10216.7 7711.23 10263.1 7726.23 C 10313.1 7742.23 10373.2 7809.23 10391.4 7869.23 C 10413.2 7939.23 10410.5 7982.23 10379.6 8051.23 C 10349.5 8117.23 10370.5 8100.23 9729.08 8576.23 C 9629.01 8650.23 9407.94 8814.23 9237.77 8941.23 C 9067.64 9067.23 8838.39 9237.23 8728.31 9319.23 C 8618.23 9401.23 8460.84 9518.23 8378.05 9579.23 C 8295.26 9640.23 8146.06 9751.23 8045.99 9826.23 C 7945.92 9900.23 7794.9 10012.2 7709.38 10076.2 C 7624.77 10139.2 7471.03 10253.2 7368.22 10329.2 C 7265.42 10405.2 7118.04 10515.2 7040.71 10573.2 C 6891.51 10685.2 6822.37 10717.2 6772.34 10699.2 Z M 6911.53 8548.23 C 6906.98 8544.23 6904.25 8420.23 6904.25 8272.23 L 6904.25 8004.23 L 7548.36 8004.23 C 7916.81 8004.23 8225.21 8000.23 8270.7 7994.23 C 8355.31 7983.23 8451.74 7950.23 8533.62 7903.23 C 8640.06 7841.23 8734.67 7723.23 8788.35 7584.23 C 8842.93 7443.23 8843.84 7428.23 8848.39 6756.23 C 8852.94 6129.23 8846.57 5936.23 8819.28 5819.23 C 8765.6 5592.23 8619.14 5422.23 8418.99 5355.23 C 8341.66 5330.23 8260.69 5314.23 8207.93 5314.23 L 8168.81 5314.23 L 8168.81 5454.23 C 8168.81 5608.23 8166.99 5614.23 8105.13 5614.23 C 8055.09 5614.23 8011.42 5585.23 7945.92 5509.23 C 7860.4 5409.23 7834.93 5401.23 7704.83 5433.23 C 7569.28 5466.23 7525.61 5469.23 7462.84 5449.23 C 7433.73 5440.23 7405.52 5429.23 7400.07 5424.23 C 7378.23 5406.23 7297.26 5384.23 7250.87 5384.23 C 7207.2 5384.23 7190.82 5390.23 7132.6 5429.23 C 7058 5478.23 6986.13 5500.23 6938.82 5486.23 L 6908.8 5478.23 L 6903.34 5333.23 C 6898.79 5223.23 6892.42 5173.23 6876.96 5119.23 C 6846.03 5014.23 6793.26 4922.23 6715.93 4838.23 L 6646.79 4764.23 L 7432.82 4764.23 C 8269.79 4764.23 8351.67 4768.23 8508.15 4814.23 C 8938.46 4940.23 9230.49 5283.23 9315.1 5763.23 C 9347.85 5950.23 9353.31 6093.23 9348.76 6749.23 C 9346.03 7339.23 9344.21 7386.23 9326.01 7496.23 C 9230.49 8069.23 8914.81 8417.23 8386.24 8530.23 C 8320.74 8544.23 8207.93 8547.23 7613.86 8551.23 C 7230.85 8554.23 6915.17 8552.23 6911.53 8548.23 Z M 6329.29 6922.23 L 6326.56 5299.23 L 4943.73 5299.23 L 4941 5622.23 L 4939.18 5944.23 L 4447.92 5944.23 L 4447.92 5581.23 C 4447.92 5180.23 4450.65 5152.23 4505.23 5040.23 C 4543.44 4961.23 4618.04 4873.23 4685.36 4829.23 C 4719.02 4806.23 4770.88 4784.23 4827.28 4769.23 L 4916.44 4744.23 L 6353.85 4744.23 L 6443.01 4769.23 C 6499.41 4784.23 6551.27 4806.23 6584.93 4829.23 C 6687.73 4897.23 6779.61 5033.23 6814.19 5169.23 C 6825.1 5211.23 6826.92 5481.23 6826.92 6879.23 L 6826.92 8539.23 L 6579.47 8542.23 L 6331.11 8544.23 L 6329.29 6922.23 Z M 7459.2 7890.23 C 7436.46 7883.23 7407.34 7872.23 7393.7 7866.23 C 7350.94 7847.23 7289.08 7776.23 7267.24 7721.23 C 7231.76 7633.23 7239.04 7556.23 7319.1 7114.23 C 7356.4 6909.23 7348.21 6808.23 7286.35 6709.23 C 7258.14 6664.23 7208.11 6620.23 6955.2 6419.23 C 6887.88 6366.23 6867.86 6344.23 6869.68 6329.23 C 6872.41 6309.23 6878.78 6309.23 7531.98 6309.23 L 8191.55 6309.23 L 8194.28 6330.23 C 8197.01 6348.23 8163.35 6378.23 8007.78 6502.23 C 7904.07 6584.23 7809.45 6665.23 7797.63 6681.23 C 7756.69 6736.23 7731.22 6804.23 7725.76 6872.23 C 7719.39 6957.23 7721.21 6964.23 7811.27 7489.23 C 7818.55 7533.23 7823.1 7594.23 7821.28 7625.23 C 7813.09 7753.23 7719.39 7865.23 7597.48 7893.23 C 7537.44 7907.23 7511.06 7906.23 7459.2 7890.23 Z M 7567.46 7659.23 C 7602.94 7639.23 7626.59 7582.23 7620.23 7527.23 C 7615.68 7480.23 7596.57 7450.23 7557.45 7428.23 C 7535.62 7415.23 7528.34 7415.23 7505.6 7429.23 C 7463.75 7452.23 7450.1 7481.23 7450.1 7548.23 C 7450.1 7602.23 7452.83 7609.23 7482.85 7640.23 C 7519.24 7678.23 7530.16 7681.23 7567.46 7659.23 Z M 6917.9 6243.23 C 6914.26 6237.23 6915.17 6228.23 6919.72 6223.23 C 6924.27 6218.23 7179 6215.23 7546.54 6216.23 C 8088.75 6219.23 8164.26 6221.23 8164.26 6234.23 C 8164.26 6247.23 8087.84 6249.23 7543.81 6252.23 C 7102.58 6253.23 6921.54 6251.23 6917.9 6243.23 Z M 6916.08 6148.23 C 6913.35 6139.23 6916.08 6128.23 6923.35 6123.23 C 6943.37 6109.23 8144.24 6111.23 8156.98 6125.23 C 8162.44 6131.23 8165.17 6143.23 8162.44 6150.23 C 8158.8 6162.23 8056 6164.23 7540.17 6164.23 C 6981.58 6164.23 6921.54 6162.23 6916.08 6148.23 Z M 7170.81 6077.23 L 6913.35 6074.23 L 6913.35 5922.23 C 6913.35 5839.23 6915.17 5773.23 6917.9 5776.23 C 6920.63 5779.23 6940.64 5837.23 6962.47 5905.23 L 7002.5 6029.23 L 7539.26 6032.23 L 8076.01 6034.23 L 8103.31 5952.23 C 8117.86 5906.23 8135.15 5852.23 8140.6 5832.23 C 8163.35 5757.23 8169.72 5781.23 8166.99 5931.23 L 8164.26 6079.23 L 7795.81 6079.23 C 7592.93 6079.23 7311.82 6078.23 7170.81 6077.23 Z" style="fill: rgb(250, 215, 2); stroke: none; vector-effect: non-scaling-stroke; stroke-width: 0px;"/></g></svg>
